X: 721
T: Lady of the Lake
B: jims roots
M:C|
R: reel
Q: 1/4=100
K:G
V:1 
|: DB,| "G"G,B,DG BGBc | dBGA BGAB | "C"c2cB AGFG | "D"AGFE DCB,A, |
"G"G,B,DG BGBc | dBGA BGAB | "C"c2cB AGFE | "D"DGGF "G"G2 :|
|: Bc | "G"dcBd g2gd | "C"edce "Am"a2ae | "D"f2fg fedf | "A"ed^ce "D"d2Bc |
"G"dcBd g2gd | "C"edce "Am"a2ae | "D"fgfe dcBA | "G"GB"D"AF "G"G2 :|
% abcbook-tune_id 6298c25dcfc915dbe8ccbae8


% abcbook-boost 0
% abcbook-tablature 
% abcbook-transpose 
% abcbook-lastupdated 1654178399567
% abcbook-soundfonts 
% abcbook-repeats 1


